Sites/Hud/app/img/dest/advantages/image(1).svg

<svg width="128" height="128" viewBox="0 0 128 128" fill="none" xmlns="http://www.w3.org/2000/svg">
<path d="M20.3483 88.5C9.0577 54.3801 33.0165 26.5 63.1074 26.5C80.8746 26.5 95.1147 33.6106 103.289 44.9264C111.302 56.0184 113.635 71.3565 107.486 88.5H20.3483Z" stroke="white" stroke-width="3"/>
<path d="M24.8942 83.2566C24.5364 80.1025 24.402 77.1059 24.4701 74.2653M104.13 83.2566C104.547 80.1139 104.705 77.1162 104.63 74.2653M24.4701 74.2653H31.8248M24.4701 74.2653C24.6615 66.2708 26.4564 59.512 29.3896 53.9558M36.4141 58.1557L29.3896 53.9558M29.3896 53.9558C32.9523 47.2074 38.1941 42.2332 44.2816 38.9743M48.028 46.4482L44.2816 38.9743M44.2816 38.9743C56.4836 32.442 72.0835 32.8015 84.368 39.5778M80.1533 46.4482L84.368 39.5778M84.368 39.5778C95.6836 45.8195 104.186 57.5057 104.63 74.2653M98.979 53.6423L91.7671 58.1557M96.5438 74.2653H104.63M60.3911 66.3978L64.1375 40.173L68.2585 66.1168" stroke="white" stroke-width="3"/>
<circle cx="64.5122" cy="74.2649" r="8.42795" stroke="white" stroke-width="3"/>
<circle cx="64" cy="64" r="63" stroke="white" stroke-width="2"/>
</svg>

<svg width="128" height="128" fill="none" xmlns="http://www.w3.org/2000/svg"><path d="M20.348 88.5c-11.29-34.12 12.669-62 42.76-62 17.767 0 32.007 7.11 40.181 18.426 8.013 11.092 10.346 26.43 4.197 43.574H20.348z" stroke="#fff" stroke-width="3"/><path d="M24.894 83.257a65.794 65.794 0 01-.424-8.992m79.66 8.992c.417-3.143.575-6.14.5-8.992m-80.16 0h7.355m-7.355 0c.192-7.994 1.986-14.753 4.92-20.31m7.024 4.2l-7.024-4.2m0 0c3.562-6.748 8.804-11.722 14.892-14.98m3.746 7.473l-3.746-7.474m0 0c12.202-6.532 27.802-6.172 40.086.604m-4.215 6.87l4.215-6.87m0 0c11.316 6.241 19.818 17.928 20.262 34.687m-5.651-20.623l-7.212 4.514m4.777 16.11h8.086m-44.239-7.868l3.747-26.225 4.12 25.944" stroke="#fff" stroke-width="3"/><circle cx="64.512" cy="74.265" r="8.428" stroke="#fff" stroke-width="3"/><circle cx="64" cy="64" r="63" stroke="#fff" stroke-width="2"/></svg>
